X: 1
T: the Mill Mill O
M: C
L: 1/8
R: Air
S: O'Farrell - Pocket Companion, vol. II (c. 1806)  duett
Z: AK/Fiddler's Companion
K: D
d>e \
| f2 A>B A3d | B>ABd {f}e2 d>e | {d/e/}f2 A2 gfed | B3cd2 :|
zA \
| (defg) a3a | bagf e3A | (defg) (a>bag) | {g}f2 fg a2 |]
zA \
defg a3 g/a/ | (bagf) {f}e2 d>e | f2A2A2 {g}f/e/d | B3cd2 |]
